src/assets/icons/no-show.svg

<?xml version="1.0" encoding="UTF-8"?>
<svg width="29px" height="28px" viewBox="0 0 29 28" version="1.1" xmlns="http://www.w3.org/2000/svg" xmlns:xlink="http://www.w3.org/1999/xlink">
    <!-- Generator: Sketch 42 (36781) - http://www.bohemiancoding.com/sketch -->
    <title>report_noshow</title>
    <desc>Created with Sketch.</desc>
    <defs></defs>
    <g id="Report" stroke="none" stroke-width="1" fill="none" fill-rule="evenodd">
        <g id="MVP-1.1---Report-User" transform="translate(-874.000000, -464.000000)" fill="#333333">
            <g id="Overlay-Report-User" transform="translate(97.000000, 186.000000)">
                <g id="report_noshow" transform="translate(777.000000, 278.000000)">
                    <path d="M14.4851873,26.3237591 C7.80190171,26.3237591 2.36448871,20.8863461 2.36448871,14.2030605 C2.36448871,7.51949895 7.80190171,2.08236189 14.4851873,2.08236189 C21.1687489,2.08236189 26.6058859,7.51949895 26.6058859,14.2030605 C26.6058859,20.8863461 21.1687489,26.3237591 14.4851873,26.3237591 M14.4851873,0.42671723 C22.0937023,0.42671723 28.2615306,6.59454547 28.2615306,14.2030605 C28.2615306,21.8115755 22.0937023,27.9794038 14.4851873,27.9794038 C6.87667229,27.9794038 0.70884405,21.8115755 0.70884405,14.2030605 C0.70884405,6.59454547 6.87667229,0.42671723 14.4851873,0.42671723 Z M13.490585,22.7320526 L15.7135108,22.7320526 C16.1738939,22.7320526 16.547108,22.3588384 16.547108,21.8984554 C16.547108,21.4380723 16.1738939,21.0648582 15.7135108,21.0648582 L13.490585,21.0648582 C13.030202,21.0648582 12.6569878,21.4380723 12.6569878,21.8984554 C12.6569878,22.3588384 13.030202,22.7320526 13.490585,22.7320526 Z M20.7162381,19.0042978 C20.1181679,19.0042978 19.6332358,19.4962612 19.6332358,20.1030032 C19.6332358,20.7097452 20.1181679,21.2017086 20.7162381,21.2017086 C21.3143083,21.2017086 21.7992404,20.7097452 21.7992404,20.1030032 C21.7992404,19.4962612 21.3143083,19.0042978 20.7162381,19.0042978 Z M9.64694912,20.1029259 C9.64694912,19.496184 9.16201704,19.0042205 8.56394684,19.0042205 C7.96587664,19.0042205 7.48094456,19.496184 7.48094456,20.1029259 C7.48094456,20.7096679 7.96587664,21.2016313 8.56394684,21.2016313 C9.16201704,21.2016313 9.64694912,20.7096679 9.64694912,20.1029259 Z" id="Combined-Shape-Copy-19"></path>
                    <path d="M20.1671944,11.5237885 L20.1671944,9.8335972 C20.1671944,9.37321418 19.7939802,9 19.3335972,9 C18.8732142,9 18.5,9.37321418 18.5,9.8335972 L18.5,11.5237885 C18.5,11.9841715 18.8732142,12.3573857 19.3335972,12.3573857 C19.7939802,12.3573857 20.1671944,11.9841715 20.1671944,11.5237885 L20.1671944,11.5237885 Z" id="Path-2261-Copy"></path>
                </g>
            </g>
        </g>
    </g>
</svg>

<svg width="29" height="28" viewBox="0 0 29 28" xmlns="http://www.w3.org/2000/svg"><g id="Report" fill="none" fill-rule="evenodd"><g id="MVP-1.1---Report-User" transform="translate(-874 -464)" fill="#333"><g id="Overlay-Report-User" transform="translate(97 186)"><g id="report_noshow" transform="translate(777 278)"><path d="M14.485 26.324c-6.683 0-12.12-5.438-12.12-12.12 0-6.685 5.437-12.122 12.12-12.122 6.684 0 12.12 5.437 12.12 12.121 0 6.683-5.436 12.12-12.12 12.12m0-25.896c7.609 0 13.777 6.168 13.777 13.776 0 7.609-6.168 13.776-13.777 13.776C6.877 27.98.71 21.812.71 14.203.709 6.595 6.877.427 14.485.427zm-.994 22.305h2.223a.834.834 0 1 0 0-1.667H13.49a.834.834 0 1 0 0 1.667zm7.225-3.728c-.598 0-1.083.492-1.083 1.099s.485 1.099 1.083 1.099 1.083-.492 1.083-1.099-.485-1.099-1.083-1.099zm-11.07 1.099c0-.607-.484-1.099-1.082-1.099-.598 0-1.083.492-1.083 1.099s.485 1.099 1.083 1.099 1.083-.492 1.083-1.1z" id="Combined-Shape-Copy-19"/><path d="M20.167 11.524v-1.69a.834.834 0 0 0-1.667 0v1.69a.834.834 0 0 0 1.667 0z" id="Path-2261-Copy"/></g></g></g></g></svg>
